X: 17127
T: Helen Black Of Inveran
R: reel
M: 4/4
K: Amajor
e>d|c>dc>B B>AA>c|e>f e<c e2 f>g|a>gg>f f>ee>c|c>f e>c B2 e>d|
c>dc>B B>AA>c|e>f e<c e2 f>g|a>f d>B e>d c<B|{d}c2 A2 {A}A2:|
e2|c>e (3eee f>ee>c|c>ee>f e2 f>g|a>gg>f f>ee>c|c>f e>c B2 e2|
ce (3eee f>ee>c|c>ff>e f2 f>g|a>f d>B e>d c<B|{d}c2 A2 {A}A2:|
a2|e>cc>B A>cc>e|f>cc>B c2 f>g|a>ff>d A>dd>f|f>ee>c B2 a2|
e>cc>B A>cc>e|f>cc>B c2 f>g|a>f d<B e>d c<B|{d}c2 A2 {A}A2:|
a2|A>c (3ccc A>cc>A|A>fe>d c2 f>g|a>ff>d A>dd>f|f>ee>c B2 a2|
[1 A>c (3ccc A>cc>A|A>fe>d c2 f>g|a>f d<B e>d c>B|{d}c2 A2 {A}A2:|
[2 A>BB>c c>dd>e|e>dd>c c2 f>g|a>f d<B e>d c<B|{d}c2 A2 {A}A2||

